images/facebook.svg

<svg width="11" height="19" viewBox="0 0 11 19" fill="none" xmlns="http://www.w3.org/2000/svg">
<path d="M7.33333 7.125H11V10.6875H7.33333V19H3.66667V10.6875H0V7.125H3.66667V5.63469C3.66667 4.22275 4.12378 2.43912 5.03311 1.46419C5.94244 0.486875 7.07789 0 8.43822 0H11V3.5625H8.43333C7.82467 3.5625 7.33333 4.03988 7.33333 4.63006V7.125Z" fill="#4F4F4F"/>
</svg>

<svg width="11" height="19" fill="none" xmlns="http://www.w3.org/2000/svg"><path d="M7.333 7.125H11v3.563H7.333V19H3.667v-8.313H0V7.126h3.667v-1.49c0-1.412.457-3.196 1.366-4.17C5.943.486 7.078 0 8.438 0H11v3.563H8.433c-.608 0-1.1.477-1.1 1.067v2.495z" fill="#4F4F4F"/></svg>
